icons/svg/placeholder_14.svg

<?xml version="1.0" encoding="UTF-8"?>
<svg width="14px" height="14px" viewBox="0 0 14 14" version="1.1" xmlns="http://www.w3.org/2000/svg" xmlns:xlink="http://www.w3.org/1999/xlink">
    <!-- Generator: Sketch 57.1 (83088) - https://sketch.com -->
    <title>placeholder_14</title>
    <desc>Created with Sketch.</desc>
    <g id="Icons-Webex" stroke="none" stroke-width="1" fill="none" fill-rule="evenodd">
        <g id="content/placeholder_14" fill="#171B1F">
            <path d="M2,0 L12,0 C13.1045695,0 14,0.8954305 14,2 L14,12 C14,13.1045695 13.1045695,14 12,14 L2,14 C0.8954305,14 0,13.1045695 0,12 L0,2 C0,0.8954305 0.8954305,0 2,0 Z M2,1 C1.44771525,1 1,1.44771525 1,2 L1,12 C1,12.5522847 1.44771525,13 2,13 L12,13 C12.5522847,13 13,12.5522847 13,12 L13,2 C13,1.44771525 12.5522847,1 12,1 L2,1 Z" id="fill"></path>
        </g>
    </g>
</svg>

<svg width="14" height="14" xmlns="http://www.w3.org/2000/svg"><path d="M2 0h10a2 2 0 012 2v10a2 2 0 01-2 2H2a2 2 0 01-2-2V2a2 2 0 012-2zm0 1a1 1 0 00-1 1v10a1 1 0 001 1h10a1 1 0 001-1V2a1 1 0 00-1-1H2z" fill="#171B1F" fill-rule="evenodd"/></svg>
